X: 0
T: Baccapipes
C: Trad
O: Morris
M: 4/4
L: 1/8
K: Emin
|: "Am"c2ce "G"dcB2 | "Am"cBA2 "G"BAG2 | "Am"c2ce "G"dcB2 | "Am"cA"G"BG "D"A2A2 :| 
|: "C"g2(3gfe "G"dBG2 | "C"g2(3gfe "D"afd2 | "C"g2(3gfe "G"dBGB | "Am"cA"G"BG "D"A2A2 :|
[K:D]|: "A"c2ce "E"dcBd | "A"cBAA "Em"GFEB | "A"c2ce "E"dcBd | "A"cA"G"BG "D"A2A2 :| 
|: "Em"g2(3gfe "Bm"dcB2 | "Em"g2(3gfg "A"agef | "Em"g2(3gfe "Bm"dcBd |"A" cA"G"BG "D"A2A2 :| 